src/assets/img/globalping/TODO_temp_flag.svg

<svg width="28" height="20" viewBox="0 0 28 20" fill="none" xmlns="http://www.w3.org/2000/svg">
<rect width="28" height="20" rx="2" fill="white"/>
<mask id="mask0_5565_4412" style="mask-type:luminance" maskUnits="userSpaceOnUse" x="0" y="0" width="28" height="20">
<rect width="28" height="20" rx="2" fill="white"/>
</mask>
<g mask="url(#mask0_5565_4412)">
<rect width="28" height="20" fill="#043CAE"/>
<path fill-rule="evenodd" clip-rule="evenodd" d="M13.0573 4.27612L14.0001 3.99998L14.9429 4.27612L14.6668 3.33331L14.9429 2.3905L14.0001 2.66665L13.0573 2.3905L13.3334 3.33331L13.0573 4.27612ZM13.0573 17.6095L14.0001 17.3333L14.9429 17.6095L14.6668 16.6666L14.9429 15.7238L14.0001 16L13.0573 15.7238L13.3334 16.6666L13.0573 17.6095ZM20.6668 10.6666L19.724 10.9428L20.0001 9.99998L19.724 9.05717L20.6668 9.33331L21.6096 9.05717L21.3334 9.99998L21.6096 10.9428L20.6668 10.6666ZM6.39062 10.9428L7.33343 10.6666L8.27624 10.9428L8.0001 9.99998L8.27624 9.05717L7.33343 9.33331L6.39062 9.05717L6.66677 9.99998L6.39062 10.9428ZM19.7736 7.33331L18.8308 7.60945L19.1069 6.66665L18.8308 5.72384L19.7736 5.99998L20.7164 5.72384L20.4403 6.66665L20.7164 7.60945L19.7736 7.33331ZM7.28379 14.2761L8.2266 14L9.16941 14.2761L8.89326 13.3333L9.16941 12.3905L8.2266 12.6666L7.28379 12.3905L7.55993 13.3333L7.28379 14.2761ZM17.3334 4.89314L16.3906 5.16929L16.6668 4.22648L16.3906 3.28367L17.3334 3.55981L18.2762 3.28367L18.0001 4.22648L18.2762 5.16929L17.3334 4.89314ZM9.72396 16.7163L10.6668 16.4401L11.6096 16.7163L11.3334 15.7735L11.6096 14.8307L10.6668 15.1068L9.72396 14.8307L10.0001 15.7735L9.72396 16.7163ZM19.7736 14L18.8308 14.2761L19.1069 13.3333L18.8308 12.3905L19.7736 12.6666L20.7164 12.3905L20.4403 13.3333L20.7164 14.2761L19.7736 14ZM7.28379 7.60945L8.2266 7.33331L9.16941 7.60945L8.89326 6.66665L9.16941 5.72384L8.2266 5.99998L7.28379 5.72384L7.55993 6.66665L7.28379 7.60945ZM17.3334 16.4401L16.3906 16.7163L16.6668 15.7735L16.3906 14.8307L17.3334 15.1068L18.2762 14.8307L18.0001 15.7735L18.2762 16.7163L17.3334 16.4401ZM9.72396 5.16929L10.6668 4.89314L11.6096 5.16929L11.3334 4.22648L11.6096 3.28367L10.6668 3.55981L9.72396 3.28367L10.0001 4.22648L9.72396 5.16929Z" fill="#FFD429"/>
</g>
</svg>

<svg xmlns="http://www.w3.org/2000/svg" width="28" height="20" fill="none">
  <rect width="28" height="20" fill="#fff" rx="2"/>
  <mask id="a" width="28" height="20" x="0" y="0" maskUnits="userSpaceOnUse" style="mask-type:luminance">
    <rect width="28" height="20" fill="#fff" rx="2"/>
  </mask>
  <g mask="url(#a)">
    <path fill="#043CAE" d="M0 0h28v20H0z"/>
    <path fill="#FFD429" fill-rule="evenodd" d="M13.057 4.276 14 4l.943.276-.276-.943.276-.943-.943.277-.943-.276.276.942-.276.943Zm0 13.334.943-.277.943.277-.276-.943.276-.943L14 16l-.943-.276.276.943-.276.942Zm7.61-6.943-.943.276L20 10l-.276-.943.943.276.943-.276-.277.943.277.943-.943-.276Zm-14.276.276.942-.276.943.276L8 10l.276-.943-.943.276-.942-.276.276.943-.276.943Zm13.383-3.61-.943.276.276-.942-.276-.943.943.276.942-.276-.276.943.276.942-.942-.276Zm-12.49 6.943L8.227 14l.942.276-.276-.943.276-.943-.942.277-.943-.277.276.943-.276.943Zm10.05-9.383-.943.276.276-.943-.276-.942.942.276.943-.276-.276.942.276.943-.943-.276Zm-7.61 11.823.943-.276.943.276-.277-.943.277-.942-.943.276-.943-.276.276.943-.276.942ZM19.774 14l-.943.276.276-.943-.276-.943.943.277.942-.277-.276.943.276.943-.942-.276ZM7.284 7.61l.943-.277.942.276-.276-.942.276-.943L8.227 6l-.943-.276.276.943-.276.942Zm10.05 8.83-.943.276.276-.943-.276-.942.942.276.943-.276-.276.943.276.942-.943-.276ZM9.723 5.17l.943-.277.943.276-.277-.943.277-.942-.943.276-.943-.276.276.942-.276.943Z" clip-rule="evenodd"/>
  </g>
</svg>
